X:084
T:Rock the Cradle Joe
S:Pete Budd, Edinburgh (before that, I don't know)
Z:Nigel Gatherer
M:4/4
L:1/8
K:D
fg|a2 ag f2 fg|a2 ag f2 f2|g3 f g2 b2|a6 eg|fA e2 d2 eg|fA e2 d2 ef|
gfed cABc|1 d6:|2 d6 |] A2-|Acec Aceg|f2 d2 d2 ef|
g3 f g2 b2|a6 A2-|Acec Aceg|f2 d2 d2 ef|gfed cABc|d6:|
<end>
<start>
